public/images/hashed/f4012dc19d00c308455e32ec1fca5614.svg

<svg xmlns="http://www.w3.org/2000/svg" width="80" height="80"><defs><linearGradient id="a" x1="0%" x2="100%" y1="100%" y2="0%"><stop offset="0%" stop-color="#C8511B"/><stop offset="100%" stop-color="#F90"/></linearGradient></defs><g fill="none" fill-rule="evenodd"><path fill="url(#a)" d="M0 0h80v80H0z"/><path fill="#FFF" d="M32.144 47H38.6a.999.999 0 0 1 .977 1.217l-1.735 7.804L47.857 42h-6.456a.999.999 0 0 1-.977-1.217l1.735-7.804L32.144 47ZM35.8 61.6a.999.999 0 0 1-.976-1.217L37.353 49h-7.152a1.001 1.001 0 0 1-.814-1.581l14-19.6a.999.999 0 0 1 1.79.798L42.648 40H49.8a1.001 1.001 0 0 1 .814 1.581l-14 19.6a1 1 0 0 1-.814.419ZM23 66h34V26a1 1 0 0 1 1-1h4V14h-7v6a1 1 0 0 1-1 1h-9a1 1 0 0 1-1-1v-6h-8v6a1 1 0 0 1-1 1h-9a1 1 0 0 1-1-1v-6h-7v11h4a1 1 0 0 1 1 1v40Zm35 2H22a1 1 0 0 1-1-1V27h-4a1 1 0 0 1-1-1V13a1 1 0 0 1 1-1h9a1 1 0 0 1 1 1v6h7v-6a1 1 0 0 1 1-1h10a1 1 0 0 1 1 1v6h7v-6a1 1 0 0 1 1-1h9a1 1 0 0 1 1 1v13a1 1 0 0 1-1 1h-4v40a1 1 0 0 1-1 1Z"/></g></svg>

<?xml version="1.0" encoding="UTF-8"?>
<svg width="80px" height="80px" viewBox="0 0 80 80" version="1.1" xmlns="http://www.w3.org/2000/svg" xmlns:xlink="http://www.w3.org/1999/xlink">
    <!-- Generator: Sketch 64 (93537) - https://sketch.com -->
    <title>Icon-Architecture/64/Arch_AWS-Nitro-Enclaves_64</title>
    <desc>Created with Sketch.</desc>
    <defs>
        <linearGradient x1="0%" y1="100%" x2="100%" y2="0%" id="linearGradient-1">
            <stop stop-color="#C8511B" offset="0%"></stop>
            <stop stop-color="#FF9900" offset="100%"></stop>
        </linearGradient>
    </defs>
    <g id="Icon-Architecture/64/Arch_AWS-Nitro-Enclaves_64" stroke="none" stroke-width="1" fill="none" fill-rule="evenodd">
        <g id="Icon-Architecture-BG/64/Compute" fill="url(#linearGradient-1)">
            <rect id="Rectangle" x="0" y="0" width="80" height="80"></rect>
        </g>
        <path d="M32.144,47 L38.6,47 C38.904,47 39.19,47.138 39.38,47.375 C39.57,47.611 39.642,47.921 39.577,48.217 L37.842,56.021 L47.857,42 L41.401,42 C41.097,42 40.811,41.862 40.621,41.625 C40.431,41.389 40.359,41.079 40.424,40.783 L42.159,32.979 L32.144,47 Z M35.8,61.6 C35.663,61.6 35.525,61.572 35.393,61.513 C34.958,61.32 34.721,60.847 34.824,60.383 L37.353,49 L30.201,49 C29.826,49 29.483,48.791 29.311,48.458 C29.14,48.125 29.169,47.724 29.387,47.419 L43.387,27.819 C43.665,27.431 44.175,27.293 44.608,27.487 C45.042,27.68 45.28,28.153 45.177,28.617 L42.648,40 L49.8,40 C50.175,40 50.518,40.209 50.69,40.542 C50.861,40.875 50.831,41.276 50.614,41.581 L36.614,61.181 C36.421,61.451 36.115,61.6 35.8,61.6 L35.8,61.6 Z M23,66 L57,66 L57,26 C57,25.448 57.448,25 58,25 L62,25 L62,14 L55,14 L55,20 C55,20.552 54.553,21 54,21 L45,21 C44.448,21 44,20.552 44,20 L44,14 L36,14 L36,20 C36,20.552 35.553,21 35,21 L26,21 C25.448,21 25,20.552 25,20 L25,14 L18,14 L18,25 L22,25 C22.553,25 23,25.448 23,26 L23,66 Z M58,68 L22,68 C21.448,68 21,67.552 21,67 L21,27 L17,27 C16.448,27 16,26.552 16,26 L16,13 C16,12.448 16.448,12 17,12 L26,12 C26.553,12 27,12.448 27,13 L27,19 L34,19 L34,13 C34,12.448 34.448,12 35,12 L45,12 C45.553,12 46,12.448 46,13 L46,19 L53,19 L53,13 C53,12.448 53.448,12 54,12 L63,12 C63.553,12 64,12.448 64,13 L64,26 C64,26.552 63.553,27 63,27 L59,27 L59,67 C59,67.552 58.553,68 58,68 L58,68 Z" id="AWS-Nitro-Enclaves_Icon_64_Squid" fill="#FFFFFF"></path>
    </g>
</svg>
